src/assets/subject_icons/esl.svg

<svg fill="none" height="80" viewBox="0 0 80 80" width="80" xmlns="http://www.w3.org/2000/svg"><path d="m40 80c22.0914 0 40-17.9086 40-40s-17.9086-40-40-40-40 17.9086-40 40 17.9086 40 40 40z" fill="#1855d1"/><path d="m59.2103 56h-2.5561c-.1654 0-4.0768 0-5.9711-.688-1.5635-.5334-3.3192-2.016-3.9648-2.576-.6084.0586-1.1686.0907-1.7023.0907-4.4824 0-8.6766-1.7067-11.2059-4.5707l17.9295-15.1893c4.269 1.8666 6.937 5.3919 6.937 9.1946 0 3.1413-1.7609 6.064-4.8505 8.0747-.0027.0319-.0027.064 0 .096v.0533c.0434.626.2257 1.2345.5336 1.7813.571.9547 2.1345 2.064 2.7214 2.4107z" fill="#16d2aa"/><path d="m23.3405 51.92h-2.5507l2.1345-1.3227c.6563-.4053 2.5186-1.7066 3.2017-2.832.4128-.7109.6506-1.5098.6937-2.3306-3.5966-2.3094-5.651-5.6854-5.651-9.312 0-6.6827 7.0224-12.1227 15.6563-12.1227 8.634 0 15.6617 5.44 15.6617 12.1227 0 6.6826-7.0277 12.1173-15.6617 12.1173-.5923 0-1.5155-.0693-2.0117-.1067-.7097.624-2.7748 2.3414-4.5945 2.9974-2.1771.7786-6.6862.7893-6.8783.7893z" fill="#fff"/><g fill="#343440"><path d="m42.1931 37.6587c.8842 0 1.6009-.7164 1.6009-1.6 0-.8837-.7167-1.6-1.6009-1.6-.8841 0-1.6008.7163-1.6008 1.6 0 .8836.7167 1.6 1.6008 1.6z"/><path d="m36.2007 37.6587c.8841 0 1.6009-.7164 1.6009-1.6 0-.8837-.7168-1.6-1.6009-1.6s-1.6008.7163-1.6008 1.6c0 .8836.7167 1.6 1.6008 1.6z"/><path d="m30.2028 37.6587c.8841 0 1.6008-.7164 1.6008-1.6 0-.8837-.7167-1.6-1.6008-1.6s-1.6009.7163-1.6009 1.6c0 .8836.7168 1.6 1.6009 1.6z"/></g></svg>

<svg width="80" height="80" viewBox="0 0 80 80" fill="none" xmlns="http://www.w3.org/2000/svg">
<path d="M40 80C62.0914 80 80 62.0914 80 40C80 17.9086 62.0914 0 40 0C17.9086 0 0 17.9086 0 40C0 62.0914 17.9086 80 40 80Z" fill="#1855D1"/>
<path d="M59.2103 56H56.6542C56.4888 56 52.5774 56 50.6831 55.312C49.1196 54.7786 47.3639 53.296 46.7183 52.736C46.1099 52.7946 45.5497 52.8267 45.016 52.8267C40.5336 52.8267 36.3394 51.12 33.8101 48.256L51.7396 33.0667C56.0086 34.9333 58.6766 38.4586 58.6766 42.2613C58.6766 45.4026 56.9157 48.3253 53.8261 50.336C53.8234 50.3679 53.8234 50.4 53.8261 50.432V50.4853C53.8695 51.1113 54.0518 51.7198 54.3597 52.2666C54.9307 53.2213 56.4942 54.3306 57.0811 54.6773L59.2103 56Z" fill="#16D2AA"/>
<path d="M23.3405 51.92H20.7898L22.9243 50.5973C23.5806 50.192 25.4429 48.8907 26.126 47.7653C26.5388 47.0544 26.7766 46.2555 26.8197 45.4347C23.2231 43.1253 21.1687 39.7493 21.1687 36.1227C21.1687 29.44 28.1911 24 36.825 24C45.459 24 52.4867 29.44 52.4867 36.1227C52.4867 42.8053 45.459 48.24 36.825 48.24C36.2327 48.24 35.3095 48.1707 34.8133 48.1333C34.1036 48.7573 32.0385 50.4747 30.2188 51.1307C28.0417 51.9093 23.5326 51.92 23.3405 51.92Z" fill="white"/>
<path d="M42.1931 37.6587C43.0773 37.6587 43.794 36.9423 43.794 36.0587C43.794 35.175 43.0773 34.4587 42.1931 34.4587C41.309 34.4587 40.5923 35.175 40.5923 36.0587C40.5923 36.9423 41.309 37.6587 42.1931 37.6587Z" fill="#343440"/>
<path d="M36.2007 37.6587C37.0848 37.6587 37.8016 36.9423 37.8016 36.0587C37.8016 35.175 37.0848 34.4587 36.2007 34.4587C35.3166 34.4587 34.5999 35.175 34.5999 36.0587C34.5999 36.9423 35.3166 37.6587 36.2007 37.6587Z" fill="#343440"/>
<path d="M30.2028 37.6587C31.0869 37.6587 31.8036 36.9423 31.8036 36.0587C31.8036 35.175 31.0869 34.4587 30.2028 34.4587C29.3187 34.4587 28.6019 35.175 28.6019 36.0587C28.6019 36.9423 29.3187 37.6587 30.2028 37.6587Z" fill="#343440"/>
</svg>
